flaticon/productivity/book-1.svg

<svg xmlns="http://www.w3.org/2000/svg" width="32" height="32" viewBox="0 0 24 24">
    <path d="M 20.222656 4.621094 L 6.089844 4.621094 C 5.097656 4.621094 4.289062 3.816406 4.289062 2.820312 C 4.289062 1.828125 5.097656 1.019531 6.089844 1.019531 L 20.222656 1.019531 C 20.882812 1.019531 20.90625 0 20.222656 0 L 6.089844 0 C 4.535156 0 3.269531 1.265625 3.269531 2.820312 L 3.269531 19.328125 C 3.269531 21.902344 5.363281 24 7.941406 24 L 20.222656 24 C 20.503906 24 20.730469 23.773438 20.730469 23.488281 L 20.730469 5.132812 C 20.730469 4.851562 20.503906 4.621094 20.222656 4.621094 Z M 12.488281 5.644531 L 16.234375 5.644531 L 16.234375 11.738281 L 14.785156 9.992188 C 14.632812 9.816406 14.28125 9.675781 14.003906 9.988281 L 12.488281 11.769531 Z M 7.941406 22.980469 C 5.925781 22.980469 4.289062 21.339844 4.289062 19.328125 L 4.289062 4.992188 C 4.777344 5.398438 5.40625 5.644531 6.089844 5.644531 L 11.46875 5.644531 L 11.46875 13.15625 C 11.46875 13.621094 12.058594 13.839844 12.367188 13.488281 L 14.386719 11.113281 L 16.351562 13.480469 C 16.714844 13.863281 17.253906 13.578125 17.253906 13.15625 L 17.253906 5.644531 L 19.710938 5.644531 L 19.710938 22.980469 Z M 7.941406 22.980469"/>
</svg>

<svg xmlns="http://www.w3.org/2000/svg" width="32" height="32" viewBox="0 0 24 24">
    <path d="M20.223 4.621H6.09a1.801 1.801 0 0 1 0-3.601h14.133c.66 0 .683-1.02 0-1.02H6.09a2.824 2.824 0 0 0-2.82 2.82v16.508A4.677 4.677 0 0 0 7.94 24h12.282a.508.508 0 0 0 .507-.512V5.133a.51.51 0 0 0-.507-.512zm-7.735 1.024h3.746v6.093l-1.449-1.746c-.152-.176-.504-.316-.781-.004l-1.516 1.782zM7.941 22.98a3.657 3.657 0 0 1-3.652-3.652V4.992a2.81 2.81 0 0 0 1.8.653h5.38v7.511c0 .465.59.684.898.332l2.02-2.375 1.965 2.367a.513.513 0 0 0 .902-.324V5.645h2.457V22.98zm0 0"/>
</svg>
